X:14
T:Lichtmann 14
C:W. Mozart
M:6/8
L:1/8
Q:"Adante" 1/8=104
K:F
!p!(A3/"_grazioso"B/A) c2c|(G3/A/G) B2B|F2F G2G|A2 (c/B/) (A2G)|(A3/B/A) c2c|(G3/A/)G B2B|
F2G A2B|A2G F3||(c3/d/c) d2d|{(de)}(f3/e/d)( dc)c|(cA)F (cB)G|(cA)F (A2G)||
(A3/B/A) c2c|(G3/A/G) B2B|F2G A2B|A2G G2A|A2B c2 (d/e//f//)|F2 (A/G/) F3|]

